!!!CDT:
!!!PTL: Il primo libro de madrigali a sei voi
!!!PPP: Venice
!!!PPR: Heirs of G. Scotto
!!!PDT: 1584
!!!RISM: M 261
!!!rime: 47
!!!AGN: Madrigal
!!!SCT: Trm0047e
!!!SCA: Trm0047e
!!!voices:
!!!COM: Malvezzi, Christofano
!!!OTL: Non è questa la mano 
**kern	**text	**kern	**text	**kern	**text	**kern	**text	**kern	**text	**kern	**text
*part6	*part6	*part5	*part5	*part4	*part4	*part3	*part3	*part2	*part2	*part1	*part1
*staff6	*staff6	*staff5	*staff5	*staff4	*staff4	*staff3	*staff3	*staff2	*staff2	*staff1	*staff1
*I"Basso	*	*I"Quinto	*	*I"Tenore	*	*I"Alto	*	*I"Sesto	*	*I"Canto	*
*I'B	*	*I'V	*	*I'T	*	*I'A	*	*I'VI	*	*I'C	*
*oclefF4	*	*oclefC4	*	*oclefC4	*	*oclefC3	*	*oclefC1	*	*oclefC1	*
*clefF4	*	*clefGv2	*	*clefGv2	*	*clefGv2	*	*clefG2	*	*clefG2	*
*k[]	*	*k[]	*	*k[]	*	*k[]	*	*k[]	*	*k[]	*
*C:	*	*C:	*	*C:	*	*C:	*	*C:	*	*C:	*
*omet(C)	*	*omet(C)	*	*omet(C)	*	*omet(C)	*	*omet(C)	*	*omet(C)	*
*M4/2	*	*M4/2	*	*M4/2	*	*M4/2	*	*M4/2	*	*M4/2	*
=1	=1	=1	=1	=1	=1	=1	=1	=1	=1	=1	=1
1A	Non	1c#X	Non	0r	.	1e	Non	0r	.	1a	Non
2D	è	2d	è	.	.	2f	è	.	.	2a	è
[2F	que-	[2cnXi	que-	.	.	[2f	que-	.	.	[2a	que-
=2	=2	=2	=2	=2	=2	=2	=2	=2	=2	=2	=2
4F]	.	4c]	.	0r	.	4f]	.	0r	.	4a]	.
4F	-sta	4cnXi	-sta	.	.	4f	-sta	.	.	4a	-sta
2C	la	2c	la	.	.	2e	la	.	.	2g	la
1D	ma-	1A	ma-	.	.	1d	ma-	.	.	1f	ma-
=3	=3	=3	=3	=3	=3	=3	=3	=3	=3	=3	=3
1AA	-no	2A	-no,	2r	.	2c#X	-no,	2r	.	1e	-no
.	.	2e	<Non	2A	Non	2a	<Non	2cc	Non	.	.
1r	.	2e	è	2E	è	2g	è	2b	è	1r	.
.	.	[2c	que-	[2F	que-	[2f	que-	[2a	que-	.	.
=4	=4	=4	=4	=4	=4	=4	=4	=4	=4	=4	=4
0r	.	4c]	.	4F]	.	4f]	.	4a]	.	0r	.
.	.	4c	-sta	4C	-sta	4e	-sta	4g	-sta	.	.
.	.	2A	la	2D	la	2d	la	2f	la	.	.
.	.	4G	ma-	1E	ma-	4c	ma-	1e	ma-	.	.
.	.	2A	.	.	.	8BL	.	.	.	.	.
.	.	.	.	.	.	8AJ	.	.	.	.	.
.	.	.	.	.	.	2B	.	.	.	.	.
.	.	4G#X	.	.	.	.	.	.	.	.	.
=5	=5	=5	=5	=5	=5	=5	=5	=5	=5	=5	=5
0r	.	2A	-no>	1A	-no	1c#X	-no>	2e	-no	2r	.
.	.	4r	.	.	.	.	.	2e	Che	2a	Che
.	.	4A	Che	.	.	.	.	.	.	.	.
.	.	2.d	tan-	1r	.	1r	.	2.f	tan-	2.a	tan-
.	.	4c#X	-t'e	.	.	.	.	4e	-t'e	4a	-t'e
=6	=6	=6	=6	=6	=6	=6	=6	=6	=6	=6	=6
1r	.	4d	sì	2r	.	1r	.	4d	sì	4a	sì
.	.	4f	mor-	.	.	.	.	4a	mor-	4a	mor-
.	.	2e	-ta-	4E	Av-	.	.	2g#X	-ta-	2b	-ta-
.	.	.	.	4E	-ven-	.	.	.	.	.	.
4AA	Av-	2e	-li	2A	-tò	4c#X	Av-	2a	-li	1a	-li
4AA	-ven-	.	.	.	.	4c#i	-ven-	.	.	.	.
2D	-tò	2r	.	4F#X	nel	2d	-tò	4a	Av-	.	.
.	.	.	.	4F#i	mio	.	.	4a	-ven-	.	.
=7	=7	=7	=7	=7	=7	=7	=7	=7	=7	=7	=7
4GG	nel	4r	.	2G	cor	4d	nel	2b	-tò	2r	.
4GG	mio	4G	Av-	.	.	4d	mio	.	.	.	.
2C	cor	4G	-ven-	2G	fiam-	4e	cor	4cc	nel	4g	Av-
.	.	2c	-tò	.	.	4e	fiam-	4cc	mio	4g	-ven-
2FF	fiam-	.	.	8FL	-mel-	8cL	-mel-	2a	cor	2cc	-tò
.	.	.	.	8G	.	8B	.	.	.	.	.
.	.	2A	nel	8A	.	8c	.	.	.	.	.
.	.	.	.	8BJ	.	8dJ	.	.	.	.	.
8FL	-mel-	.	.	8cL	.	4c	.	2f	fiam-	4a	nel
8G	.	.	.	8B	.	.	.	.	.	.	.
8A	.	4F	mio	8c	.	4c	-l'e	.	.	4a	mio
8BJ	.	.	.	8dJ	.	.	.	.	.	.	.
=8	=8	=8	=8	=8	=8	=8	=8	=8	=8	=8	=8
4c	.	4C	cor	4e	.	2c	stra-	8eL	-mel-	2g	cor
.	.	.	.	.	.	.	.	8f	.	.	.
4C	-l'e	4c	fiam-	4e	-l'e	.	.	8g	.	.	.
.	.	.	.	.	.	.	.	8aJ	.	.	.
2G	stra-	8GL	-mel-	2d	stra-	4B	-li,	8bL	.	2g	fiam-
.	.	8A	.	.	.	.	.	8ccJ	.	.	.
.	.	8B	.	.	.	4B	fiam-	2dd	.	.	.
.	.	8cJ	.	.	.	.	.	.	.	.	.
2D	-li,	4d	.	2d	-li,	4A	-mel-	.	.	8fL	-mel-
.	.	.	.	.	.	.	.	.	.	8g	.
.	.	4d	-l'e	.	.	4f	-l'e	4dd	-le,	8a	.
.	.	.	.	.	.	.	.	.	.	8bJ	.
4A	Av-	2c	stra-	2r	.	4e	stra-	2r	.	4cc	.
4A	-ven-	.	.	.	.	8dL	.	.	.	4c	-l'e
.	.	.	.	.	.	8cJ	.	.	.	.	.
=9	=9	=9	=9	=9	=9	=9	=9	=9	=9	=9	=9
2G	-tò	2B	-li,	4d	Av-	2.d	.	2r	.	2g	stra-
.	.	.	.	4d	-ven-	.	.	.	.	.	.
4G	nel	4d	<Av-	2.B	-tò	.	.	4dd	Av-	4d	-li,
4GG	mio	4d	-ven-	.	.	4B	-li,	4dd	-ven-	2g	Av-
2G	cor	2d	-tò	.	.	4r	.	2b	-tò	.	.
.	.	.	.	4G	nel	2g	Av-	.	.	4g	-ven-
2C	fiam-	4c	nel	4G	mio	.	.	4cc	nel	2e	-tò
.	.	4G	mio	[4c	cor	4g	-ven-	4cc	mio	.	.
=10	=10	=10	=10	=10	=10	=10	=10	=10	=10	=10	=10
8FL	-mel-	4A	cor	4c]	.	4f	-tò	2a	cor	4f	nel
8G	.	.	.	.	.	.	.	.	.	.	.
8A	.	4F	fiam-	4c	fiam-	2c	nel	.	.	4f	mio
8BJ	.	.	.	.	.	.	.	.	.	.	.
4c	.	8FL	-mel-	8cL	-mel-	.	.	2a	fiam-	2f	cor
.	.	8G	.	8B	.	.	.	.	.	.	.
4F	-le,	8A	.	8A	.	4c	mio	.	.	.	.
.	.	8BJ	.	8GJ	.	.	.	.	.	.	.
4r	.	1c	.	4A	.	4c	cor	8aL	-mel-	4e	fiam-
.	.	.	.	.	.	.	.	8b	.	.	.
4A	fiam-	.	.	4A	-l'e	4A	fiam-	8cc	.	4.e	-mel-
.	.	.	.	.	.	.	.	8ddJ	.	.	.
4.A	-mel-	.	.	8cL	stra-	[2a	-mel-	4ee	.	.	.
.	.	.	.	8B	.	.	.	.	.	8dL	.
.	.	.	.	8A	.	.	.	4a	-l'e	8c	.
8B	.	.	.	8GJ	.	.	.	.	.	8BJ	.
=11	=11	=11	=11	=11	=11	=11	=11	=11	=11	=11	=11
4c	.	2c	-l'e	4A	.	4a]	.	1ee	stra-	4A	.
4A	-l'e	.	.	4A	-li?	4e	-l'e	.	.	4a	-l'e
2E	stra-	2B	stra-	2r	.	2e	stra-	.	.	2g#X	stra-
1A	-li?	1A	-li?>	1r	.	1e	-li?	1cc#X	-li?	2a	-li?
.	.	.	.	.	.	.	.	.	.	[2a	Ec-
=12	=12	=12	=12	=12	=12	=12	=12	=12	=12	=12	=12
0r	.	0r	.	2.d	Ec-	2.f	Ec-	0r	.	4a]	.
.	.	.	.	.	.	.	.	.	.	4a	-co
.	.	.	.	.	.	.	.	.	.	2dd	che
.	.	.	.	4d	-co	4f	-co	.	.	.	.
.	.	.	.	4e	che	4g	che	.	.	4.cc	pur
.	.	.	.	2f	pur	2a	pur	.	.	.	.
.	.	.	.	.	.	.	.	.	.	8b	.
.	.	.	.	.	.	.	.	.	.	4a	.
.	.	.	.	4d	si	4a	si	.	.	4dd	si
=13	=13	=13	=13	=13	=13	=13	=13	=13	=13	=13	=13
0r	.	0r	.	2e	tro-	2g#X	tro-	0r	.	2b	tro-
.	.	.	.	2A	-va	4a	-va	.	.	2a	-va
.	.	.	.	.	.	4e	Tra	.	.	.	.
.	.	.	.	4r	.	4f	le	.	.	2r	.
.	.	.	.	4B	Tra	4gnXi	mie	.	.	.	.
.	.	.	.	4c	le	2a	man,	.	.	4r	.
.	.	.	.	4d	mie	.	.	.	.	4dd	Tra
=14	=14	=14	=14	=14	=14	=14	=14	=14	=14	=14	=14
0r	.	0r	.	4e	man,	4r	.	0r	.	4cc	le
.	.	.	.	4E	Tra	4g	Tra	.	.	4b	mie
.	.	.	.	2F	le	4f	le	.	.	2a	man
.	.	.	.	.	.	4e	mie	.	.	.	.
.	.	.	.	2G	mie	4d	man	.	.	2g	ri-
.	.	.	.	.	.	2e	ri-	.	.	.	.
.	.	.	.	2A	man	.	.	.	.	2f	-stret-
.	.	.	.	.	.	[4d	-stret-	.	.	.	.
=15	=15	=15	=15	=15	=15	=15	=15	=15	=15	=15	=15
4r	.	1r	.	2A	ri-	4d]	.	1r	.	2e	-ta
4AA	Né	.	.	.	.	4c#X	.	.	.	.	.
4D	for-	.	.	2B-X	-stret-	2d	-ta	.	.	2r	.
4E	-z'od	.	.	.	.	.	.	.	.	.	.
2F	ar-	4r	.	1A	-ta	1r	.	2r	.	1r	.
.	.	4D	Né	.	.	.	.	.	.	.	.
2D	-te,	4A	for-	.	.	.	.	4r	.	.	.
.	.	4B	-z'od	.	.	.	.	4d	Né	.	.
=16	=16	=16	=16	=16	=16	=16	=16	=16	=16	=16	=16
2AA	<Né	2.c	ar-	0r	.	0r	.	4a	for-	0r	.
.	.	.	.	.	.	.	.	4b	-z'od	.	.
4A	for-	.	.	.	.	.	.	2.cc	ar-	.	.
4B	-z'od	4B	-te	.	.	.	.	.	.	.	.
2.c	ar-	4A	per	.	.	.	.	.	.	.	.
.	.	4G	fug-	.	.	.	.	4b	-te	.	.
.	.	4F	-gir	.	.	.	.	4a	per	.	.
4B	-te>	4G	li	.	.	.	.	4g	fug-	.	.
=17	=17	=17	=17	=17	=17	=17	=17	=17	=17	=17	=17
4A	per	2A	gio-	2D	Né	2r	.	4f	-gir	2r	.
4G	fug-	.	.	.	.	.	.	4d	li	.	.
4F	-gir	2D	-va,	4A	for-	2d	Né	2f	gio-	4r	.
4D	li	.	.	4B	-z'od	.	.	.	.	4d	Né
2AA	gio-	1r	.	2.c	ar-	4c	for-	1e	-va,	4a	for-
.	.	.	.	.	.	4d	-z'od	.	.	4b	-z'od
2AA	-va,	.	.	.	.	[2e	ar-	.	.	[2cc	ar-
.	.	.	.	4B	-te	.	.	.	.	.	.
=18	=18	=18	=18	=18	=18	=18	=18	=18	=18	=18	=18
0r	.	0r	.	4A	per	4e]	.	1r	.	4cc]	.
.	.	.	.	4G	fug-	4e	-te	.	.	4b	-te
.	.	.	.	4F	-gir	4f	per	.	.	4a	per
.	.	.	.	4E	li	4c	fug-	.	.	4g	fug-
.	.	.	.	1D	gio-	4d	-gir	2r	.	4f	-gir
.	.	.	.	.	.	4A	li	.	.	4d	li
.	.	.	.	.	.	2d	gio-	2a	Né	2f	gio-
=19	=19	=19	=19	=19	=19	=19	=19	=19	=19	=19	=19
2r	.	1A	Né	2A	-va,	2c#X	-va,	1a	tien	2e	-va,
2AA	Né	.	.	2E	Né	2c#i	Né	.	.	2a	Né
2D	tien	2A	tien	1F	tien	2d	tien	2r	.	2a	tien
[2F	fa-	[2D	fa-	.	.	[2A	fa-	[2a	fa-	[2f	fa-
=20	=20	=20	=20	=20	=20	=20	=20	=20	=20	=20	=20
4F]	.	4D]	.	2A	fa-	4A]	.	4a]	.	4f]	.
4F	-ce o	4D	-ce o	.	.	4A	-ce o	4a	-ce o	4f	-ce o
2C	sa-	2G	sa-	4G	-ce o	4e	sa-	2cc	sa-	2e	sa-
.	.	.	.	4C	sa-	2g	-et-	.	.	.	.
1GG	-et-	1G	-et-	1D	-et-	.	.	4b	-et-	2d	-et-
.	.	.	.	.	.	8fL	.	2cc	.	.	.
.	.	.	.	.	.	8eJ	.	.	.	.	.
.	.	.	.	.	.	2d	.	.	.	2d	-ta
.	.	.	.	.	.	.	.	4b	.	.	.
=21	=21	=21	=21	=21	=21	=21	=21	=21	=21	=21	=21
2C	-ta	2G	-ta	4C	-ta	1e	-ta	2cc	-ta	4r	.
.	.	.	.	2c	Che	.	.	.	.	2e	Che
2r	.	2r	.	.	.	.	.	2.g	Che	.	.
.	.	.	.	4B	da	.	.	.	.	4d	da
1r	.	1r	.	4c	me	1r	.	.	.	2.e	me
.	.	.	.	2c	la	.	.	4g	da	.	.
.	.	.	.	.	.	.	.	4a	me	.	.
.	.	.	.	4B-X	di-	.	.	[4g	la	4d	la
=22	=22	=22	=22	=22	=22	=22	=22	=22	=22	=22	=22
1r	.	1r	.	1A	-fen-	1r	.	4g]	.	4c#X	di-
.	.	.	.	.	.	.	.	4f	di-	2d	-fen-
.	.	.	.	.	.	.	.	2e	-fen-	.	.
.	.	.	.	.	.	.	.	.	.	4c#X	.
4r	.	2r	.	2D	-da.	4r	.	2d	-da.	2d	-da.
2F	Giu-	.	.	.	.	2a	Giu-	.	.	.	.
.	.	4r	.	2r	.	.	.	2r	.	2r	.
4E	-sto è	[4c	Giu-	.	.	4g	-sto è	.	.	.	.
=23	=23	=23	=23	=23	=23	=23	=23	=23	=23	=23	=23
2D	ben,	4c]	.	2r	.	2f	ben	1r	.	4r	.
.	.	4B-X	-sto è	.	.	.	.	.	.	2dd	Giu-
2r	.	2A	ben,	4r	.	4f	ch'io	.	.	.	.
.	.	.	.	2A	Giu-	4e	ne	.	.	4cc	-sto è
2r	.	1r	.	.	.	2e	pren-	2r	.	2b	ben
.	.	.	.	4G	-sto è	.	.	.	.	.	.
4r	.	.	.	2F	ben	2A	-da, A-	4r	.	4a	ch'io
[4A	<Giu-	.	.	.	.	.	.	[4cc	Giu-	4f	ne
=24	=24	=24	=24	=24	=24	=24	=24	=24	=24	=24	=24
4A]	.	4r	.	4E	ch'io	2e	-mor,	4cc]	.	2g	pren-
4G	-sto è	2e	<Giu-	4E	ne	.	.	4b	-sto è	.	.
2F	ben>	.	.	2A	pren-	4r	.	2a	ben,	2a	-da,
.	.	4d	-sto è	.	.	2a	<Giu-	.	.	.	.
4E	ch'io	4c	ben>	2e	-da, A-	.	.	2r	.	1r	.
4E	ne	4B	ch'io	.	.	4g	-sto è	.	.	.	.
2D	pren-	4d	ne	2A	-mor,	2f	ben	4r	.	.	.
.	.	[4A	pren-	.	.	.	.	[4dd	<Giu-	.	.
=25	=25	=25	=25	=25	=25	=25	=25	=25	=25	=25	=25
2AA	-da, A-	4A]	.	1r	.	2.e	ch'io	4dd]	.	4r	.
.	.	4A	-da, A-	.	.	.	.	4cc	-sto è	2a	<Giu-
2E	-mor,	2B	-mor,	.	.	.	.	2b	ben>	.	.
.	.	.	.	.	.	4B	ne	.	.	4g	-sto è
2r	.	1r	.	4r	.	2d	pren-	2a	ch'io	2f	ben
.	.	.	.	2d	Giu-	.	.	.	.	.	.
4r	.	.	.	.	.	2A	-da,>	2a	ne	[2e	ch'io
[4A	<Giu-	.	.	4c	-sto è	.	.	.	.	.	.
=26	=26	=26	=26	=26	=26	=26	=26	=26	=26	=26	=26
4A]	.	1r	.	2B	ben	1r	.	2b	pren-	4e]	.
4G	-sto è	.	.	.	.	.	.	.	.	4e	ne
2F	ben	.	.	4A	ch'io	.	.	4cc	-da, A-	2a	pren-
.	.	.	.	4A	ne	.	.	2cc	-mor,	.	.
4E	ch'io	2E	A-	2e	pren-	2r	.	.	.	2g	-da,> A-
4G	ne	.	.	.	.	.	.	4b	qual-	.	.
2A	pren-	[2F	-mor,	2A	-da, A-	4r	.	4a	-che	2cc	-mor,
.	.	.	.	.	.	4A	A-	4a	ven-	.	.
=27	=27	=27	=27	=27	=27	=27	=27	=27	=27	=27	=27
2D	-da, A-	2F]	.	1A	-mor,-	2d	-mor,	4.f	-det-	2r	.
.	.	.	.	.	.	.	.	8g	.	.	.
2AA	-mor,>	2E	qual-	.	.	2c	qual-	2a	.	2a	qual-
2E	qual-	2.E	-che	2B	-qual-	2B	-che	2e	-ta,	2g#X	-che
4C	-che	.	.	4c	-che	4A	ven-	2r	.	2a	ven-
4D	ven-	4F	ven-	4A	ven-	[4A	-det-	.	.	.	.
=28	=28	=28	=28	=28	=28	=28	=28	=28	=28	=28	=28
1BB	-det-	1D	-det-	1B	-det-	4A]	.	1r	.	1dd	-det-
.	.	.	.	.	.	8G#iL	.	.	.	.	.
.	.	.	.	.	.	8F#iJ	.	.	.	.	.
.	.	.	.	.	.	2G#i	.	.	.	.	.
1AA	-ta,	1E	-ta,	2E	-ta,	1A	-ta,	2r	.	1cc#X	-ta,
.	.	.	.	2r	.	.	.	[2a	E	.	.
=29	=29	=29	=29	=29	=29	=29	=29	=29	=29	=29	=29
0r	.	2.A	E	0r	.	2.e	E	2a]	.	0r	.
.	.	.	.	.	.	.	.	2cc	se	.	.
.	.	4A	se	.	.	4e	se	.	.	.	.
.	.	2d	pia-	.	.	2f	pia-	2b-X	pia-	.	.
.	.	4c	-ghe	.	.	4e	-ghe	4a	-ghe	.	.
.	.	4B	mi	.	.	4d	mi	4g	mi	.	.
=30	=30	=30	=30	=30	=30	=30	=30	=30	=30	=30	=30
0r	.	1A	diè,	2r	.	2e	diè	2a	diè	2r	.
.	.	.	.	2.F	ba-	2.f	ba-	2.a	ba-	2.cc	ba-
.	.	1r	.	.	.	.	.	.	.	.	.
.	.	.	.	4F	-ci	4f	-ci	4a	-ci	4cc	-ci
.	.	.	.	2G	le	2d	le	2g	le	2b-X	le
=31	=31	=31	=31	=31	=31	=31	=31	=31	=31	=31	=31
0r	.	1r	.	1A	ren-	4c	ren-	4f	ren-	1a	ren-
.	.	.	.	.	.	2d	.	8eL	.	.	.
.	.	.	.	.	.	.	.	8dJ	.	.	.
.	.	.	.	.	.	.	.	2e	.	.	.
.	.	.	.	.	.	4c#X	.	.	.	.	.
.	.	2r	.	1D	-da,	1d	-da,	1f#X	-da,	1a	-da,
.	.	[2A	<E	.	.	.	.	.	.	.	.
=32	=32	=32	=32	=32	=32	=32	=32	=32	=32	=32	=32
2.AA	E	2A]	.	2.E	E	0r	.	0r	.	0r	.
.	.	2c	se	.	.	.	.	.	.	.	.
4AA	se	.	.	4E	se	.	.	.	.	.	.
2D	pia-	2B-X	pia-	2F	pia-	.	.	.	.	.	.
4C	-ghe	4A	-ghe	4E	-ghe	.	.	.	.	.	.
4BB	mi	4G	mi	4D	mi	.	.	.	.	.	.
=33	=33	=33	=33	=33	=33	=33	=33	=33	=33	=33	=33
2AA	diè	1A	diè>	2E	diè	2r	.	2r	.	2r	.
2.FF	ba-	.	.	2.A	ba-	2.a	ba-	2.f	<ba-	2.cc	<ba-
.	.	2r	.	.	.	.	.	.	.	.	.
4FF	-ci	.	.	4A	-ci	4a	-ci	4e	-ci	4cc	-ci
2GG	le	[2G	ba-	2D	le	4.g	le	2d	le	2b-X	le
.	.	.	.	.	.	8f	.	.	.	.	.
=34	=34	=34	=34	=34	=34	=34	=34	=34	=34	=34	=34
0AA	ren-	4G]	.	0A	ren-	2e	.	2c#X	ren-	0a	ren-
.	.	4G	-ci	.	.	.	.	.	.	.	.
.	.	2F	le	.	.	2d	.	1d	.	.	.
.	.	1E	ren-	.	.	1e	ren-	.	.	.	.
.	.	.	.	.	.	.	.	2c#X	.	.	.
=35	=35	=35	=35	=35	=35	=35	=35	=35	=35	=35	=35
0Dl	-da.	0Dl	-da.	0Al	-da.	0f#Xl	-da.	0dl	-da.>	0al	-da.>
==	==	==	==	==	==	==	==	==	==	==	==
*-	*-	*-	*-	*-	*-	*-	*-	*-	*-	*-	*-
!!!system-decoration: [*]
!!!RDF**kern: i = editorial accidental
!!!RDF**kern: l = terminal long
!!!ENC: Emiliano Ricciardi
!!!END:
!!!EED: Ricciardi, Emiliano
!!!EEV: 2020/07/23
!!!YEC: Copyright 2018 Emiliano Ricciardi, All Rights Reserved
!!!ONB: Translated from MusicXML on 2020/07/23
!!@@BEGIN:	VERSEDATA
!!@SOLERTI:	47
!!@CATALOGNUM:	Trm0047
!!@LAST_MODIFIED: 2020/07/12
!!@TITLE:		Non è questa la mano
!!@GENRE:		madrigale/ballata
!!@MANUSRC:	Amz, Brn, C, E<sub>1</sub>, F<sub>2</sub>, I<sub>3</sub>, M<sub>7</sub>, P<sub>4</sub>, Tr<sub>2</sub>, V<sub>8</sub>, V<sub>13/E1</sub>
!!@PRINTSRC:	8, 9, 11, 12, 13, 15, 20, 24, 29, 33, 67, 145
!!@@BEGIN:	VERSES
!!@ABOUTIT:	Ballando con la sua donna desidera di fare amorosa vendetta de la sua mano ch’egli teneva stretta.
!!@ABOUTEN:	Dancing with his lady, he desires to take amorous revenge on the hand he held tight.
!!@EDITOR:	Solerti, Angelo
!!@EDITION_TITLE: Le Rime di Torquato Tasso
!!@EDITION_LOC:	Bologna
!!@EDITION_PUB:	Romagnoli-Dall’Acqua
!!@EDITION_DATE:  1898-1902
!!@EDITION_VOL:	2
!!@EDITION_PAGE:  71
!!@TRANSLATOR:	Emiliano Ricciardi and Amyrose McCue Gill
!!@VERSE:
!!	Non è questa la mano
!!	Che tante e sì mortali
!!	Avventò nel mio cor fiammelle e strali?
!!	Ecco che pur si trova
!!	Fra le mie man ristretta
!!	Né forza od arte per fuggir le giova,
!!	Né tien face o saetta
!!	Che da me la difenda.
!!	Giusto è ben ch'io ne prenda,
!!	Amor, qualche vendetta,
!!	E se piaghe mi diè baci le renda.
!!@TVERSE:
!!	Is this not the hand
!!	That so many and truly fatal
!!	Flames and arrows hurled at my heart?
!!	Yet here it is, to be found
!!	Held fast between my hands,
!!	Neither strength nor craft can help it escape,
!!	Nor does it hold a torch or a spear
!!	To defend her against me.
!!	It is just that I take,
!!	Love, some kind of revenge,
!!	And if she gave me wounds, may I give her kisses.
!!@@END:		VERSES
!!@OTHER_CRIT_ED:   Torquato Tasso, <i>Rime d’amore (secondo il codice
!!		Chigiano L VIII 302)</i>, eds. Franco Gavazzeni and
!!		Vercingetorige Martignone, vol. 4 of <i>Edizione
!!		Nazionale delle opere di Torquato Tasso</i>
!!		(Alessandria: Edizioni Dell’Orso, 2004), 34.
!!@ATTRIBUTION_ABOUT:	Secure
!!		<br>
!!		Among other authoritative sources (see Literary
!!		Sources), this poem appears in the autograph Chigiano
!!		L.VIII.302 (Biblioteca Vaticana, Rome), compiled
!!		around 1584&ndash;85.
!!@DATING:	Before 1579
!!		<br>
!!		Although Solerti dates this poem to the early 1560s,
!!		there is no hard evidence to support this dating.
!!		The earliest written testimony of “Non è questa la
!!		mano” is Benedetto Pallavicino’s musical setting,
!!		published in 1579 (Trm0047a).
!!@DEDICATEE:	Bendidio, Lucrezia
!!@DEDICATEE_INFO:
!!		In the autograph Chigiano L.VIII.302 (Biblioteca
!!		Vaticana, Rome), this poem appears among those
!!		addressed to Tasso’s <i>primo amore</i> (first love),
!!		identified as the Ferrarese singer and noblewoman
!!		<a target="_new" href="http://www.treccani.it/enciclopedia/lucrezia-bendidio_%28Dizionario-Biografico%29">Lucrezia Bendidio</a>
!!		(1547&ndash;after 1584). The poem itself, however, does not mention Lucrezia.
!!		As [Anthony Newcomb] {footnote: Anthony Newcomb, “The Ballata and the ‘Free’ Madrigal in
!!		the Second Half of the Sixteenth Century,” Journal
!!		of the American Musicological Society, vol. 63, no.
!!		3 (Fall 2010): 433&ndash;34.} has pointed out, this poem belongs to the
!!		hybrid genre of the ballata-madrigale.  More
!!		specifically, the opening tercet recalls the
!!		<i>ripresa</i> of a ballata, the central section
!!		the <i>piedi</i> (two pairs of <i>settenarii</i>
!!		separated by an <i>endecasillabo</i>), and the final
!!		tercet the <i>volta</i>. The poem is extremely rich
!!		of references to <i>topoi</i> that resonated with
!!		the culture of the time, such as courtly dance and
!!		the female hand–the latter is especially common in
!!		late sixteenth-century lyric poetry (see <i>Rime</i>
!!		315, 571, and 862). Counting 23 settings (see Musical
!!		Settings), “Non è questa la mano” is second only
!!		to “Ardi e gela a tua voglia” (<i>Rime</i> 418),
!!		whose musical fortune, however, is tied to that of
!!		Guarini’s <i>proposta</i> “Ardo sì, ma non t’amo.”
!!@@END:		VERSEDATA
!!@@BEGIN:	SETTING
!!@CATALOGNUM:	Trm0047e
!!@RIMETITLE:	Non è questa la mano
!!@SOLERTI:	47
!!@COMPOSER:	Malvezzi, Christofano
!!@PRINCEPSTITLE:	Il primo libro de madrigali a sei voi
!!@PRINCEPSLOC:	Vinegia
!!@NORMLOC:	Venice
!!@NORMPUB:	Heirs of G. Scotto
!!@NORMPUBSHORT:	Scotto
!!@PRINCEPSPUB:	Herede di G. Scotto
!!@PRINCEPSYEAR:	1584
!!@PRINCEPSRISM:	M 261
!!@REPRINTS:	
!!@OVOICES:	6
!!@EXTANTVOICES:	6
!!@PARTBOOKS:	
!!@EXTPARTBOOKS:	
!!@OCLEFS:	C1,C1,C3,C4,C4,F4
!!@OMENSURATION:	C
!!@OKEYSIG:	-
!!@FINAL:	D
!!@TIMPEDITOR:	Ricciardi, Emiliano
!!@NOTE:		
!!@@END:		SETTING
